assets/images/ico_feature1.svg

<svg width="99" height="96" viewBox="0 0 99 96" fill="none" xmlns="http://www.w3.org/2000/svg">
<path d="M17.3249 54.6455C16.9164 54.6455 16.5078 55.0541 16.5078 55.4626V60.1611C16.5078 60.5697 16.9164 60.9783 17.3249 60.9783H52.2573C53.483 58.629 55.1172 56.4841 56.9558 54.6455H17.3249V54.6455Z" fill="black"/>
<path d="M17.4265 38.4053C16.9158 38.4053 16.6094 38.8138 16.6094 39.2224V43.9209C16.6094 44.4316 17.0179 44.738 17.4265 44.738H65.6372C66.1479 44.738 66.4543 44.3295 66.4543 43.9209V39.2224C66.4543 38.7117 66.0458 38.4053 65.6372 38.4053H17.4265Z" fill="black"/>
<path d="M49.1931 70.8861H10.4816C8.74516 70.8861 7.31518 69.4561 7.31518 67.7197V28.906H75.6477V46.4743C75.9542 46.4743 76.2606 46.4743 76.567 46.4743C78.4056 46.4743 80.2441 46.6786 81.9805 46.985V16.9555C81.9805 14.6062 81.0612 12.3591 79.6312 10.7248V10.6227H79.5291C77.7927 8.68201 75.3413 7.45632 72.4814 7.45632H65.5357V3.16638C65.5357 1.42998 64.1058 0 62.3694 0H57.5687C55.8323 0 54.4023 1.42998 54.4023 3.16638V7.35418H28.5606V3.16638C28.5606 1.42998 27.1306 0 25.3942 0H20.5936C18.8572 0 17.4272 1.42998 17.4272 3.16638V7.35418H10.4816C7.62161 7.35418 5.17022 8.57987 3.43381 10.5206H3.33167V10.6227C1.90169 12.257 0.982422 14.5041 0.982422 16.8533V67.7197C0.982422 73.031 5.27236 77.2188 10.4816 77.2188H49.1931C49.091 76.0953 48.9888 75.0739 48.9888 73.9503C49.091 72.9289 49.091 71.9075 49.1931 70.8861Z" fill="black"/>
<path d="M76.5669 52.5005C64.7185 52.5005 55.1172 62.1018 55.1172 73.9502C55.1172 85.7986 64.7185 95.3998 76.5669 95.3998C88.4153 95.3998 98.0165 85.7986 98.0165 73.9502C98.0165 62.1018 88.4153 52.5005 76.5669 52.5005ZM76.5669 89.0671C68.2934 89.0671 61.45 82.3257 61.45 73.9502C61.45 65.5746 68.1913 58.8333 76.5669 58.8333C84.9425 58.8333 91.6838 65.5746 91.6838 73.9502C91.6838 82.3257 84.9425 89.0671 76.5669 89.0671Z" fill="black"/>
<path d="M82.3908 70.7841H79.7351V65.2684C79.7351 63.532 78.3051 62.1021 76.5687 62.1021C74.8323 62.1021 73.4023 63.532 73.4023 65.2684V73.9504C73.4023 75.6868 74.8323 77.1168 76.5687 77.1168H82.3908C84.1272 77.1168 85.5572 75.6868 85.5572 73.9504C85.5572 72.214 84.1272 70.7841 82.3908 70.7841Z" fill="black"/>
</svg>

<svg width="99" height="96" fill="none" xmlns="http://www.w3.org/2000/svg"><path d="M17.325 54.645c-.409 0-.817.41-.817.818v4.698c0 .409.408.817.817.817h34.932c1.226-2.349 2.86-4.494 4.699-6.333H17.325zm.102-16.24a.806.806 0 00-.818.817v4.699c0 .51.409.817.817.817h48.211c.51 0 .817-.408.817-.817v-4.699a.806.806 0 00-.817-.817h-48.21z" fill="#000"/><path d="M49.193 70.886H10.482a3.182 3.182 0 01-3.167-3.166V28.906h68.333v17.568h.919c1.839 0 3.677.205 5.414.511v-30.03c0-2.349-.92-4.596-2.35-6.23v-.102h-.102c-1.736-1.941-4.188-3.167-7.048-3.167h-6.945v-4.29A3.182 3.182 0 0062.369 0h-4.8a3.182 3.182 0 00-3.167 3.166v4.188H28.561V3.166A3.182 3.182 0 0025.394 0h-4.8a3.182 3.182 0 00-3.167 3.166v4.188h-6.945c-2.86 0-5.312 1.226-7.048 3.167h-.102v.102c-1.43 1.634-2.35 3.881-2.35 6.23V67.72c0 5.311 4.29 9.499 9.5 9.499h38.711c-.102-1.124-.204-2.145-.204-3.269.102-1.021.102-2.043.204-3.064z" fill="#000"/><path d="M76.567 52.5c-11.848 0-21.45 9.602-21.45 21.45 0 11.849 9.602 21.45 21.45 21.45 11.848 0 21.45-9.601 21.45-21.45 0-11.848-9.602-21.45-21.45-21.45zm0 36.567c-8.274 0-15.117-6.741-15.117-15.117a15.083 15.083 0 0115.117-15.117A15.083 15.083 0 0191.684 73.95a15.083 15.083 0 01-15.117 15.117z" fill="#000"/><path d="M82.39 70.784h-2.655v-5.516a3.182 3.182 0 00-3.166-3.166 3.182 3.182 0 00-3.167 3.166v8.682a3.182 3.182 0 003.167 3.167h5.822a3.182 3.182 0 003.166-3.167 3.182 3.182 0 00-3.166-3.166z" fill="#000"/></svg>
